!!!OTL: 129. Freylekhs
!!!Genre:	Freylekhs
!!!Mode:	Minor
!!!Listening/dance:	dance
!!!:	*g:dor; *B-:
!!!One_Mode:	no
**kern
*thru
*I"P1
*clefG2
*k[b-e-]
*g:
*M2/4
*>A
=1
!LO:TX:a:i:t=G-minor
8dL
16gL
16gJJ
16gLL
16g
16g
16gJJ
=2
(16aLL
16b-J)
8gJ
8r
8g
=3
(16aLL
16b-)
(16g
16b-JJ)
(16aLL
16b-)
(16g
16b-JJ)
=4
16aLL
16g
16f#X
16e-JJ
4d
=5
8dL
16gL
16gJJ
16gLL
16g
16g
16gJJ
=6
(16aLL
16b-J)
8gJ
8r
8d
=7
8.b-L
16aJk
(16aLL
16g)
(16g
16f#XJJ)
=8
2g
*>B
=9||
!!!Begin-Modulation
*g:
=31||
!LO:TX:a:i:t=G-minor
8aL
8b-
8cc
8dd-XJ
=32
8ccL
16b-L
16aJJ
4g
=33
8.b-L
16aJk
16b-LL
16a
16g
16f#XJJ
=34
8gL
8a
8b-
8gJ
=35
8aL
8b-
8cc#X
8ddJ
=36
8ccnL
16b-L
16aJJ
4g
=37
8.b-L
16aJk
16b-LL
16a
16g
16f#XJJ
=38
4g
4r
==
*-
